svg/fluentui-system-icons/ic_fluent_person_ribbon_16_filled.svg

<svg width="16" height="16" viewBox="0 0 16 16" fill="none" xmlns="http://www.w3.org/2000/svg">
<path d="M10 12.6451V13.6891C9.40959 13.8872 8.74039 14 8 14C4.85951 14 3 11.9714 3 10V9.5C3 8.67157 3.67157 8 4.5 8H9.5348C9.19466 8.58819 9 9.27104 9 9.99936C9 11.0138 9.37764 11.94 10 12.6451ZM8 1.5C9.51878 1.5 10.75 2.73122 10.75 4.25C10.75 5.76878 9.51878 7 8 7C6.48122 7 5.25 5.76878 5.25 4.25C5.25 2.73122 6.48122 1.5 8 1.5ZM13 12.9992C14.6569 12.9992 16 11.6561 16 9.99936C16 8.34259 14.6569 6.99951 13 6.99951C11.3431 6.99951 10 8.34259 10 9.99936C10 11.6561 11.3431 12.9992 13 12.9992ZM13 13.9991C13.7286 13.9991 14.4117 13.8044 15 13.464V15.7494C15 15.9433 14.7888 16.0634 14.6222 15.9642L13 14.9991L11.3778 15.9642C11.2112 16.0634 11 15.9433 11 15.7494V13.464C11.5883 13.8044 12.2714 13.9991 13 13.9991Z" fill="#212121"/>
</svg>

<svg xmlns="http://www.w3.org/2000/svg" width="16" height="16"><path d="M10 12.645v1.044A6.27 6.27 0 0 1 8 14c-3.14 0-5-2.029-5-4v-.5A1.5 1.5 0 0 1 4.5 8h5.035A3.981 3.981 0 0 0 9 10c0 1.014.378 1.94 1 2.645ZM8 1.5A2.75 2.75 0 1 1 8 7a2.75 2.75 0 0 1 0-5.5ZM13 13a3 3 0 1 0 0-6 3 3 0 0 0 0 6Zm0 1a3.98 3.98 0 0 0 2-.536v2.285a.25.25 0 0 1-.378.215L13 15l-1.622.965A.25.25 0 0 1 11 15.75v-2.285A3.98 3.98 0 0 0 13 14Z"/></svg>
